src/assets/images/prototype/resultats/8-comment-calcule.svg

<svg width="55" height="68" viewBox="0 0 55 68" fill="none" xmlns="http://www.w3.org/2000/svg">
<path d="M40.4955 8.30019C40.3873 5.97592 41.5349 1.26399 46.9915 1.01044C53.8122 0.693484 56.0857 7.6663 51.5386 12.4205C47.9009 16.2238 46.9915 19.4989 46.9915 20.6611" stroke="black" stroke-width="2" stroke-linecap="round" stroke-linejoin="round"/>
<path d="M46.9911 26.9999C47.7086 26.9999 48.2903 26.4323 48.2903 25.7321C48.2903 25.032 47.7086 24.4644 46.9911 24.4644C46.2736 24.4644 45.6919 25.032 45.6919 25.7321C45.6919 26.4323 46.2736 26.9999 46.9911 26.9999Z" fill="black"/>
<path d="M1.55202 56.4924C1.48539 55.0621 2.19162 52.1625 5.54951 52.0064C9.74687 51.8114 11.146 56.1023 8.34773 59.028C6.10915 61.3685 5.54951 63.384 5.54951 64.0991" stroke="black" stroke-width="2" stroke-linecap="round" stroke-linejoin="round"/>
<path d="M5.5495 67.9998C5.99105 67.9998 6.349 67.6505 6.349 67.2196C6.349 66.7887 5.99105 66.4395 5.5495 66.4395C5.10795 66.4395 4.75 66.7887 4.75 67.2196C4.75 67.6505 5.10795 67.9998 5.5495 67.9998Z" fill="black"/>
<path d="M3 28.3647H27.5146" stroke="black" stroke-width="2" stroke-linecap="round" stroke-linejoin="round"/>
<path d="M3 39.9668H27.5146" stroke="black" stroke-width="2" stroke-linecap="round" stroke-linejoin="round"/>
<path d="M35 17.1362C26.4542 14.6411 9.43744 14.6286 9.73686 34.5398C10.0363 54.4509 26.7037 54.0642 35 51.382" stroke="black" stroke-width="2" stroke-linecap="round" stroke-linejoin="round"/>
</svg>

<svg width="55" height="68" fill="none" xmlns="http://www.w3.org/2000/svg"><path d="M40.495 8.3c-.108-2.324 1.04-7.036 6.497-7.29 6.82-.317 9.094 6.656 4.547 11.41-3.638 3.804-4.547 7.079-4.547 8.241" stroke="#000" stroke-width="2" stroke-linecap="round" stroke-linejoin="round"/><path d="M46.991 27c.718 0 1.3-.568 1.3-1.268 0-.7-.582-1.268-1.3-1.268-.717 0-1.3.568-1.3 1.268 0 .7.583 1.268 1.3 1.268z" fill="#000"/><path d="M1.552 56.492c-.067-1.43.64-4.33 3.998-4.486 4.197-.195 5.596 4.096 2.798 7.022-2.239 2.34-2.798 4.356-2.798 5.071" stroke="#000" stroke-width="2" stroke-linecap="round" stroke-linejoin="round"/><path d="M5.55 68a.79.79 0 00.799-.78.79.79 0 00-.8-.78.79.79 0 00-.799.78c0 .43.358.78.8.78z" fill="#000"/><path d="M3 28.365h24.515M3 39.967h24.515M35 17.136C26.454 14.641 9.437 14.63 9.737 34.54c.3 19.91 16.967 19.524 25.263 16.842" stroke="#000" stroke-width="2" stroke-linecap="round" stroke-linejoin="round"/></svg>
